X:1
T:"The Ladies of Carrick"  (jig)  0934
T:"The Ladies of Carrick"  (jig)  0934
T:after Miss Kennedy
C:after Miss Kennedy
L:1/8
M:4/4
K:C
V:1 treble 
V:1
 BEA |SOSOOO .!fermata!PMTuCMeAA ed^c | eAA Aa^f z2 | eAA ed^c z2 | ^fBB Baf z2 | eAA ed^c z2 | %6
 eAA e^f=g z2 | ^fed ed^c z2 | ^fBB Baf z2 :: e^cc acc z2 | e^cc e^f=g z2 | e^cc acc z2 | %12
 ^fBB Baf z2 | e^cc acc z2 | e^cc e^f=g z2 | ^fed ed^c z2 | ^fBB Baf z2 :| %17

